!!!ONB: MCCC : IMC0032_02 : Extracted Monophonic Melody
!!!COM: Clementi, Muzio
!!!OPR: Sonata No. 6 in D Major
!!!OMV: 2
!!!SCT: Op.36
!!!ODT: 1790///
**kern
*thru
*staff1
*Ipiano
*>A
*clefG2
*k[f#c#]
*D:
*M6/8
8a
8a
8a
=1
4b
8a
8dd
8a
8f#
=2
8a
8g
8f#
8ff#
8gg
8aa
=3
8aa
8gg
8gg
8ff#
8ee
8ff#
=4
8ee
8r
8r
8a
8a
8a
=5
4b
8a
8dd
8a
8f#
=6
8a
8g
8f#
16aa
16gg
16ff#
16ee
16dd
16cc#
=7
8b
8b
8b
8cc#
8b
8cc#
=8
8dd
16ff#
16dd
16ff#
16dd
8a
8a
8a
=9
4b
8a
16dd
16a
16dd
16a
8f#
=10
8a
8g
8f#
8ff#
8gg
8aa
=11
8aa
8gg
8gg
8ff#
8ee
8ff#
=12
8ee
8r
8r
8a
8a
8a
=13
4b
8a
8dd
8a
8f#
=14
8a
8g
8f#
16aa
16gg
16ff#
16ee
16dd
16cc#
=15
8b
8b
8b
8cc#
8b
8cc#
=16
8dd
16aa
16gg
16ff#
16ee
16dd
16cc#
16b
16a
16g
16f#
=17
8e
8e
8e
8b
8a
8g
=18
8f#
8r
8r
16dd
16cc#
16b
16a
16g
16f#
=19
8e
8e
8e
8b
8a
8g
=20
16f#
16dd
16f#
16dd
16f#
16dd
16f#
16dd#
16f#
16dd#
16f#
16dd#
=21
16e
16ee
16e
16ee
16e
16ee
16cc#
16aa
16cc#
16aa
16cc#
16aa
=22
8dd
16aa
16ff#
16gg
16ee
8dd
16aa
16ff#
16gg
16ee
=23
8dd
8ddd
8ddd
8ddd
8ddd
8ddd
=24
4ddd
8r
*>B
8ff#
8ff#
8ff#
=25
4ee
8dd
8gg
8gg
8gg
=26
4ff#
8ee
8aa
8aa
8aa
=27
4gg
8ff#
16ddd
16ee
16ddd
16ee
16ddd
16ee
=28
16ccc#
16ee
16ccc#
16ee
16ccc#
16ee
16gg#
16ee
16gg#
16ee
16gg#
16ee
=29
16aa
16ee
16bb
16ee
16ccc#
16ee
16ddd
16ee
16ddd
16ee
16ddd
16ee
=30
16ccc#
16eee
16ddd
16ccc#
16bb
16aa
16gg#
16ff#
16ee
16dd
16cc#
16b
=31
16cc
16a
16cc
16a
16cc
16a
16cc
16a
16cc
16a
16cc
16a
=32
16cc
16a
16cc
16a
16cc
16a
16cc
16a
16cc
16a
16cc
16a
=33
8b
8r
8r
8ee
8ee
8ee
=34
8dd
8r
8r
8cc
8cc
8cc
=35
8b
8r
8r
8a
8a
8a
=36
8g#
8g#
8g#
8d#
8d#
8d#
=37
8G#
8e
8B
8g#
8e
8b
=38
8g#
8ee
8dd#
8dd
8cc#
8b
=39
4a
8a
8a
8g#
8a
=40
4cc#
8b
8ee
8ff#
8gg#
=41
8aa
8ee
8cc#
8a
8g#
8a
=42
4cc#
8b
16eee
16ddd
16ccc#
16bb
16aa
16gg#
=43
16aa
16bb
16ccc#
16bb
16aa
16gg#
16ff#
16ee
16dd
16cc#
16b
16a#
=44
8b
8b
8b
8b
8dd
8ff#
=45
4a
16ee
16cc#
4b
16dd
16b
=46
4a
16cc#
16a
8e
8e
8e
=47
8dd
8b
8g#
8e
8f#
8g#
=48
4a
16cc#
16a
8e
8e
8e
=49
8dd
8b
8g#
8e
8f#
8g#
=50
16a
16cc#
16ee
16cc#
16ee
16cc#
16b
16dd
16ff#
16dd
16ff#
16dd
=51
16cc#
16ee
16cc#
16ee
16a
16cc#
16b
16dd
16b
16dd
16g#
16b
=52
8.a
16b
16cc#
16a
8e
8cc#
8ee
=53
8dd
8b
8g#
8e
8f#
8g#
=54
8.a
16b
16cc#
16a
8e
8cc#
8ee
=55
8dd
16b
16dd
16g#
16b
8e
8f#
8g#
=56
16a
16cc#
16ee
16aa
16ee
16cc#
16b
16dd
16ff#
16dd
16ff#
16dd
=57
16cc#
16ee
16dd
16cc#
16b
16a
16g#
16f#
16e
16d
16c#
16B
=58
16A
16B
16A
16G#
16A
16B
16c#
16d
16e
16f#
16g
16g#
=59
16a
16b
16a
16g#
16a
16b
16cc#
16dd
16ee
16ff#
16gg
16gg#
=60
[2.aa
=61
2.aa_
=62
2.aa]
=63
4r
8r
*>A
8a
8a
8a
=64
4b
8a
8dd
8a
8f#
=65
8a
8g
8f#
8ff#
8gg
8aa
=66
8aa
8gg
8gg
8ff#
8ee
8ff#
=67
8ee
8r
8r
8a
8a
8a
=68
4b
8a
8dd
8a
8f#
=69
8a
8g
8f#
16aa
16gg
16ff#
16ee
16dd
16cc#
=70
8b
8b
8b
8cc#
8b
8cc#
=71
8dd
16ff#
16dd
16ff#
16dd
8a
8a
8a
=72
4b
8a
16dd
16a
16dd
16a
8f#
=73
8a
8g
8f#
8ff#
8gg
8aa
=74
8aa
8gg
8gg
8ff#
8ee
8ff#
=75
8ee
8r
8r
8a
8a
8a
=76
4b
8a
8dd
8a
8f#
=77
8a
8g
8f#
16aa
16gg
16ff#
16ee
16dd
16cc#
=78
8b
8b
8b
8cc#
8b
8cc#
=79
8dd
16aa
16gg
16ff#
16ee
16dd
16cc#
16b
16a
16g
16f#
=80
8e
8e
8e
8b
8a
8g
=81
8f#
8r
8r
16dd
16cc#
16b
16a
16g
16f#
=82
8e
8e
8e
8b
8a
8g
=83
16f#
16dd
16f#
16dd
16f#
16dd
16f#
16dd#
16f#
16dd#
16f#
16dd#
=84
16e
16ee
16e
16ee
16e
16ee
16cc#
16aa
16cc#
16aa
16cc#
16aa
=85
8dd
16aa
16ff#
16gg
16ee
8dd
16aa
16ff#
16gg
16ee
=86
8dd
8ddd
8ddd
8ddd
8ddd
8ddd
=87
4ddd
8r
==
*-
